48x48/apps/com.github.z.Cumulonimbus.svg

<svg xmlns="http://www.w3.org/2000/svg" width="48" height="48" version="1.1">
 <circle style="opacity:0.2" cx="24" cy="25" r="20"/>
 <circle style="fill:#ffeb3b" cx="24" cy="24" r="20"/>
 <path style="opacity:0.1" d="M 24,8 A 17,17 0 0 0 7,25 17,17 0 0 0 24,42 17,17 0 0 0 36.013672,37.013672 L 33.892578,34.892578 A 14,14 0 0 1 24,39 14,14 0 0 1 10,25 14,14 0 0 1 24,11 a 14,14 0 0 1 9.892578,4.107422 l 2.121094,-2.121094 A 17,17 0 0 0 24,8 Z m 0,5 A 12,12 0 0 0 12,25 12,12 0 0 0 24,37 12,12 0 0 0 32.480469,33.480469 L 30.359375,31.359375 A 9,9 0 0 1 24,34 a 9,9 0 0 1 -9,-9 9,9 0 0 1 9,-9 9,9 0 0 1 6.359375,2.640625 l 2.121094,-2.121094 A 12,12 0 0 0 24,13 Z m 0,5 a 7,7 0 0 0 -7,7 7,7 0 0 0 7,7 7,7 0 0 0 4.947266,-2.052734 L 26.826172,27.826172 A 4,4 0 0 1 24,29 a 4,4 0 0 1 -4,-4 4,4 0 0 1 4,-4 4,4 0 0 1 2.826172,1.173828 l 2.121094,-2.121094 A 7,7 0 0 0 24,18 Z"/>
 <path style="fill:#424242" d="M 24 7 A 17 17 0 0 0 7 24 A 17 17 0 0 0 24 41 A 17 17 0 0 0 36.013672 36.013672 L 33.892578 33.892578 A 14 14 0 0 1 24 38 A 14 14 0 0 1 10 24 A 14 14 0 0 1 24 10 A 14 14 0 0 1 33.892578 14.107422 L 36.013672 11.986328 A 17 17 0 0 0 24 7 z M 24 12 A 12 12 0 0 0 12 24 A 12 12 0 0 0 24 36 A 12 12 0 0 0 32.480469 32.480469 L 30.359375 30.359375 A 9 9 0 0 1 24 33 A 9 9 0 0 1 15 24 A 9 9 0 0 1 24 15 A 9 9 0 0 1 30.359375 17.640625 L 32.480469 15.519531 A 12 12 0 0 0 24 12 z M 24 17 A 7 7 0 0 0 17 24 A 7 7 0 0 0 24 31 A 7 7 0 0 0 28.947266 28.947266 L 26.826172 26.826172 A 4 4 0 0 1 24 28 A 4 4 0 0 1 20 24 A 4 4 0 0 1 24 20 A 4 4 0 0 1 26.826172 21.173828 L 28.947266 19.052734 A 7 7 0 0 0 24 17 z"/>
 <path style="fill:#f4f4f7;opacity:0.2" d="M 24 4 A 20 20 0 0 0 4 24 A 20 20 0 0 0 4.0214844 24.582031 A 20 20 0 0 1 24 5 A 20 20 0 0 1 43.978516 24.417969 A 20 20 0 0 0 44 24 A 20 20 0 0 0 24 4 z"/>
</svg>

<svg xmlns="http://www.w3.org/2000/svg" width="48" height="48"><circle style="opacity:.2" cx="24" cy="25" r="20"/><circle style="fill:#ffeb3b" cx="24" cy="24" r="20"/><path style="opacity:.1" d="M24 8A17 17 0 0 0 7 25a17 17 0 0 0 17 17 17 17 0 0 0 12.014-4.986l-2.121-2.121A14 14 0 0 1 24 39a14 14 0 0 1-14-14 14 14 0 0 1 14-14 14 14 0 0 1 9.893 4.107l2.12-2.12A17 17 0 0 0 24 8zm0 5a12 12 0 0 0-12 12 12 12 0 0 0 12 12 12 12 0 0 0 8.48-3.52l-2.12-2.12A9 9 0 0 1 24 34a9 9 0 0 1-9-9 9 9 0 0 1 9-9 9 9 0 0 1 6.36 2.64l2.12-2.12A12 12 0 0 0 24 13zm0 5a7 7 0 0 0-7 7 7 7 0 0 0 7 7 7 7 0 0 0 4.947-2.053l-2.12-2.12A4 4 0 0 1 24 29a4 4 0 0 1-4-4 4 4 0 0 1 4-4 4 4 0 0 1 2.826 1.174l2.121-2.121A7 7 0 0 0 24 18z"/><path style="fill:#424242" d="M24 7A17 17 0 0 0 7 24a17 17 0 0 0 17 17 17 17 0 0 0 12.014-4.986l-2.121-2.121A14 14 0 0 1 24 38a14 14 0 0 1-14-14 14 14 0 0 1 14-14 14 14 0 0 1 9.893 4.107l2.12-2.12A17 17 0 0 0 24 7zm0 5a12 12 0 0 0-12 12 12 12 0 0 0 12 12 12 12 0 0 0 8.48-3.52l-2.12-2.12A9 9 0 0 1 24 33a9 9 0 0 1-9-9 9 9 0 0 1 9-9 9 9 0 0 1 6.36 2.64l2.12-2.12A12 12 0 0 0 24 12zm0 5a7 7 0 0 0-7 7 7 7 0 0 0 7 7 7 7 0 0 0 4.947-2.053l-2.12-2.12A4 4 0 0 1 24 28a4 4 0 0 1-4-4 4 4 0 0 1 4-4 4 4 0 0 1 2.826 1.174l2.121-2.121A7 7 0 0 0 24 17z"/><path style="fill:#f4f4f7;opacity:.2" d="M24 4A20 20 0 0 0 4 24a20 20 0 0 0 .021.582A20 20 0 0 1 24 5a20 20 0 0 1 19.979 19.418A20 20 0 0 0 44 24 20 20 0 0 0 24 4z"/></svg>
